templates/flag_icons/vg.svg

<?xml version="1.0" encoding="UTF-8" standalone="no"?>
<svg width="23px" height="17px" viewBox="0 0 23 17" version="1.1" xmlns="http://www.w3.org/2000/svg" xmlns:xlink="http://www.w3.org/1999/xlink">
    <!-- Generator: Sketch 3.7.2 (28276) - http://www.bohemiancoding.com/sketch -->
    <title>VG</title>
    <desc>Created with Sketch.</desc>
    <defs>
        <linearGradient x1="50%" y1="0%" x2="50%" y2="100%" id="linearGradient-1">
            <stop stop-color="#FFFFFF" offset="0%"></stop>
            <stop stop-color="#F0F0F0" offset="100%"></stop>
        </linearGradient>
        <rect id="path-2" x="0" y="0" width="21" height="15" rx="1.5"></rect>
        <filter x="-50%" y="-50%" width="200%" height="200%" filterUnits="objectBoundingBox" id="filter-4">
            <feOffset dx="0" dy="0.5" in="SourceAlpha" result="shadowOffsetOuter1"></feOffset>
            <feGaussianBlur stdDeviation="0.5" in="shadowOffsetOuter1" result="shadowBlurOuter1"></feGaussianBlur>
            <feColorMatrix values="0 0 0 0 0   0 0 0 0 0   0 0 0 0 0  0 0 0 0.16 0" type="matrix" in="shadowBlurOuter1"></feColorMatrix>
        </filter>
        <linearGradient x1="50%" y1="0%" x2="50%" y2="100%" id="linearGradient-5">
            <stop stop-color="#06319C" offset="0%"></stop>
            <stop stop-color="#00247E" offset="100%"></stop>
        </linearGradient>
        <rect id="path-6" x="0" y="0" width="21" height="15"></rect>
        <filter x="-50%" y="-50%" width="200%" height="200%" filterUnits="objectBoundingBox" id="filter-7">
            <feOffset dx="0" dy="0.5" in="SourceAlpha" result="shadowOffsetOuter1"></feOffset>
            <feGaussianBlur stdDeviation="0.5" in="shadowOffsetOuter1" result="shadowBlurOuter1"></feGaussianBlur>
            <feColorMatrix values="0 0 0 0 0   0 0 0 0 0   0 0 0 0 0  0 0 0 0.16 0" type="matrix" in="shadowBlurOuter1"></feColorMatrix>
        </filter>
        <linearGradient x1="50%" y1="0%" x2="50%" y2="100%" id="linearGradient-8">
            <stop stop-color="#008338" offset="0%"></stop>
            <stop stop-color="#00612A" offset="100%"></stop>
        </linearGradient>
        <path d="M0,3.5 L2.57831658e-17,0.999341965 C1.15435165e-17,0.447420638 0.443716645,0 0.999807492,0 L4.00019251,0 C4.55237094,0 5,0.440959692 5,0.999341965 L5,3.5 C5,6 2.5,7 2.5,7 C2.5,7 0,6 0,3.5 Z" id="path-9"></path>
        <filter x="-50%" y="-50%" width="200%" height="200%" filterUnits="objectBoundingBox" id="filter-11">
            <feOffset dx="0" dy="0.5" in="SourceAlpha" result="shadowOffsetOuter1"></feOffset>
            <feColorMatrix values="0 0 0 0 0   0 0 0 0 0   0 0 0 0 0  0 0 0 0.06 0" type="matrix" in="shadowOffsetOuter1"></feColorMatrix>
        </filter>
        <linearGradient x1="50%" y1="0%" x2="50%" y2="100%" id="linearGradient-12">
            <stop stop-color="#FFD033" offset="0%"></stop>
            <stop stop-color="#FEC403" offset="100%"></stop>
        </linearGradient>
        <path d="M1.5,2 C1.77614237,2 2,1.77614237 2,1.5 C2,1.22385763 1.77614237,1 1.5,1 C1.22385763,1 1,1.22385763 1,1.5 C1,1.77614237 1.22385763,2 1.5,2 Z M1.5,3 C1.77614237,3 2,2.77614237 2,2.5 C2,2.22385763 1.77614237,2 1.5,2 C1.22385763,2 1,2.22385763 1,2.5 C1,2.77614237 1.22385763,3 1.5,3 Z M1.5,4 C1.77614237,4 2,3.77614237 2,3.5 C2,3.22385763 1.77614237,3 1.5,3 C1.22385763,3 1,3.22385763 1,3.5 C1,3.77614237 1.22385763,4 1.5,4 Z M1.5,5 C1.77614237,5 2,4.77614237 2,4.5 C2,4.22385763 1.77614237,4 1.5,4 C1.22385763,4 1,4.22385763 1,4.5 C1,4.77614237 1.22385763,5 1.5,5 Z M3.5,5 C3.77614237,5 4,4.77614237 4,4.5 C4,4.22385763 3.77614237,4 3.5,4 C3.22385763,4 3,4.22385763 3,4.5 C3,4.77614237 3.22385763,5 3.5,5 Z M3.5,4 C3.77614237,4 4,3.77614237 4,3.5 C4,3.22385763 3.77614237,3 3.5,3 C3.22385763,3 3,3.22385763 3,3.5 C3,3.77614237 3.22385763,4 3.5,4 Z M3.5,3 C3.77614237,3 4,2.77614237 4,2.5 C4,2.22385763 3.77614237,2 3.5,2 C3.22385763,2 3,2.22385763 3,2.5 C3,2.77614237 3.22385763,3 3.5,3 Z M3.5,2 C3.77614237,2 4,1.77614237 4,1.5 C4,1.22385763 3.77614237,1 3.5,1 C3.22385763,1 3,1.22385763 3,1.5 C3,1.77614237 3.22385763,2 3.5,2 Z" id="path-13"></path>
        <filter x="-50%" y="-50%" width="200%" height="200%" filterUnits="objectBoundingBox" id="filter-14">
            <feOffset dx="0" dy="0.5" in="SourceAlpha" result="shadowOffsetOuter1"></feOffset>
            <feColorMatrix values="0 0 0 0 0   0 0 0 0 0   0 0 0 0 0  0 0 0 0.06 0" type="matrix" in="shadowOffsetOuter1"></feColorMatrix>
        </filter>
        <ellipse id="path-15" cx="2.5" cy="3" rx="0.5" ry="1.5"></ellipse>
        <filter x="-50%" y="-50%" width="200%" height="200%" filterUnits="objectBoundingBox" id="filter-16">
            <feOffset dx="0" dy="0.5" in="SourceAlpha" result="shadowOffsetOuter1"></feOffset>
            <feColorMatrix values="0 0 0 0 0   0 0 0 0 0   0 0 0 0 0  0 0 0 0.06 0" type="matrix" in="shadowOffsetOuter1"></feColorMatrix>
        </filter>
        <path d="M12.5,10 C12.5,10.9536401 13.8658999,11.5 15.5,11.5 C17.1341001,11.5 18.5,10.9536401 18.5,10 C18.5,9.72385763 18.2761424,9.5 18,9.5 C17.7238576,9.5 17.5,9.72385763 17.5,10 C17.5,10.0095598 17.3788043,10.1241754 17.0820716,10.2428684 C16.6792626,10.403992 16.1117918,10.5 15.5,10.5 C14.8882082,10.5 14.3207374,10.403992 13.9179284,10.2428684 C13.6211957,10.1241754 13.5,10.0095598 13.5,10 C13.5,9.72385763 13.2761424,9.5 13,9.5 C12.7238576,9.5 12.5,9.72385763 12.5,10 L12.5,10 Z" id="path-17"></path>
        <filter x="-50%" y="-50%" width="200%" height="200%" filterUnits="objectBoundingBox" id="filter-18">
            <feOffset dx="0" dy="0.5" in="SourceAlpha" result="shadowOffsetOuter1"></feOffset>
            <feColorMatrix values="0 0 0 0 0   0 0 0 0 0   0 0 0 0 0  0 0 0 0.06 0" type="matrix" in="shadowOffsetOuter1"></feColorMatrix>
        </filter>
        <linearGradient x1="50%" y1="0%" x2="50%" y2="100%" id="linearGradient-19">
            <stop stop-color="#DB1E36" offset="0%"></stop>
            <stop stop-color="#D51931" offset="100%"></stop>
        </linearGradient>
        <path d="M3.5,3 L0,0 L0.5,0 L4,2.5 L5,2.5 L9,0 L9,0.25 C9,0.388071187 8.91348267,0.561798096 8.79154062,0.648899555 L5.5,3 L5.5,4 L8.8118248,6.83870697 C8.91575109,6.92778665 8.8840332,7 8.75,7 L8.75,7 C8.61192881,7 8.41348267,6.9382019 8.29154062,6.85110044 L5,4.5 L4,4.5 L0,7 L0,6.5 L3.5,4 L3.5,3 Z" id="path-20"></path>
        <mask id="mask-21" maskContentUnits="userSpaceOnUse" maskUnits="objectBoundingBox" x="-0.5" y="-0.5" width="10" height="8">
            <rect x="-0.5" y="-0.5" width="10" height="8" fill="white"></rect>
            <use xlink:href="#path-20" fill="black"></use>
        </mask>
    </defs>
    <g id="Flag-Kit" stroke="none" stroke-width="1" fill="none" fill-rule="evenodd">
        <g id="VG">
            <g id="AE" transform="translate(1.000000, 1.000000)">
                <mask id="mask-3" fill="white">
                    <use xlink:href="#path-2"></use>
                </mask>
                <g id="Mask">
                    <use fill="black" fill-opacity="1" filter="url(#filter-4)" xlink:href="#path-2"></use>
                    <use fill="url(#linearGradient-1)" fill-rule="evenodd" xlink:href="#path-2"></use>
                </g>
                <g id="Mask-Copy" mask="url(#mask-3)">
                    <use fill="black" fill-opacity="1" filter="url(#filter-7)" xlink:href="#path-6"></use>
                    <use fill="url(#linearGradient-5)" fill-rule="evenodd" xlink:href="#path-6"></use>
                </g>
                <g id="Rectangle-1105" mask="url(#mask-3)">
                    <g transform="translate(13.000000, 4.000000)">
                        <mask id="mask-10" fill="white">
                            <use xlink:href="#path-9"></use>
                        </mask>
                        <g id="Mask" stroke="none" fill="none">
                            <use fill="black" fill-opacity="1" filter="url(#filter-11)" xlink:href="#path-9"></use>
                            <use fill="url(#linearGradient-8)" fill-rule="evenodd" xlink:href="#path-9"></use>
                        </g>
                        <g id="Oval-197" stroke="none" fill="none" mask="url(#mask-10)">
                            <use fill="black" fill-opacity="1" filter="url(#filter-14)" xlink:href="#path-13"></use>
                            <use fill="url(#linearGradient-12)" fill-rule="evenodd" xlink:href="#path-13"></use>
                        </g>
                        <g id="Oval-193" stroke="none" fill="none" mask="url(#mask-10)">
                            <use fill="black" fill-opacity="1" filter="url(#filter-16)" xlink:href="#path-15"></use>
                            <use fill="url(#linearGradient-1)" fill-rule="evenodd" xlink:href="#path-15"></use>
                        </g>
                    </g>
                </g>
                <g id="Shape" mask="url(#mask-3)">
                    <use fill="black" fill-opacity="1" filter="url(#filter-18)" xlink:href="#path-17"></use>
                    <use fill="url(#linearGradient-12)" fill-rule="evenodd" xlink:href="#path-17"></use>
                </g>
                <g id="Rectangle-36" mask="url(#mask-3)">
                    <use fill="url(#linearGradient-19)" fill-rule="evenodd" xlink:href="#path-20"></use>
                    <use stroke="#FFFFFF" mask="url(#mask-21)" stroke-width="1" xlink:href="#path-20"></use>
                </g>
                <path d="M0,2.5 L0,4.5 L3.5,4.5 L3.5,7.00461102 C3.5,7.2782068 3.71403503,7.5 4.00468445,7.5 L4.99531555,7.5 C5.27404508,7.5 5.5,7.2842474 5.5,7.00461102 L5.5,4.5 L9.00952148,4.5 C9.28040529,4.5 9.5,4.28596497 9.5,3.99531555 L9.5,3.00468445 C9.5,2.72595492 9.28494263,2.5 9.00952148,2.5 L5.5,2.5 L5.5,0 L3.5,0 L3.5,2.5 L0,2.5 Z" id="Rectangle-2" fill="url(#linearGradient-1)" mask="url(#mask-3)"></path>
                <polygon id="Rectangle-36" fill="url(#linearGradient-19)" mask="url(#mask-3)" points="0 3 4 3 4 2.5 4 0 5 0 5 2.5 5 3 9 3 9 4 5 4 5 4.5 5 7 4 7 4 4.5 4 4 0 4"></polygon>
                <rect id="Depth" mask="url(#mask-3)" x="0" y="0" width="21" height="15" rx="1.5"></rect>
            </g>
        </g>
    </g>
</svg>

<svg width="23" height="17" viewBox="0 0 23 17" xmlns="http://www.w3.org/2000/svg" xmlns:xlink="http://www.w3.org/1999/xlink"><title>VG</title><defs><linearGradient x1="50%" y1="0%" x2="50%" y2="100%" id="d"><stop stop-color="#FFF" offset="0%"/><stop stop-color="#F0F0F0" offset="100%"/></linearGradient><rect id="b" width="21" height="15" rx="1.5"/><filter x="-50%" y="-50%" width="200%" height="200%" filterUnits="objectBoundingBox" id="c"><feOffset dy=".5" in="SourceAlpha" result="shadowOffsetOuter1"/><feGaussianBlur stdDeviation=".5" in="shadowOffsetOuter1" result="shadowBlurOuter1"/><feColorMatrix values="0 0 0 0 0 0 0 0 0 0 0 0 0 0 0 0 0 0 0.16 0" in="shadowBlurOuter1"/></filter><linearGradient x1="50%" y1="0%" x2="50%" y2="100%" id="h"><stop stop-color="#06319C" offset="0%"/><stop stop-color="#00247E" offset="100%"/></linearGradient><path id="g" d="M0 0h21v15H0z"/><filter x="-50%" y="-50%" width="200%" height="200%" filterUnits="objectBoundingBox" id="f"><feOffset dy=".5" in="SourceAlpha" result="shadowOffsetOuter1"/><feGaussianBlur stdDeviation=".5" in="shadowOffsetOuter1" result="shadowBlurOuter1"/><feColorMatrix values="0 0 0 0 0 0 0 0 0 0 0 0 0 0 0 0 0 0 0.16 0" in="shadowBlurOuter1"/></filter><linearGradient x1="50%" y1="0%" x2="50%" y2="100%" id="k"><stop stop-color="#008338" offset="0%"/><stop stop-color="#00612A" offset="100%"/></linearGradient><path d="M0 3.5V1a1 1 0 0 1 1-1h3a1 1 0 0 1 1 1v2.5C5 6 2.5 7 2.5 7S0 6 0 3.5z" id="i"/><filter x="-50%" y="-50%" width="200%" height="200%" filterUnits="objectBoundingBox" id="j"><feOffset dy=".5" in="SourceAlpha" result="shadowOffsetOuter1"/><feColorMatrix values="0 0 0 0 0 0 0 0 0 0 0 0 0 0 0 0 0 0 0.06 0" in="shadowOffsetOuter1"/></filter><linearGradient x1="50%" y1="0%" x2="50%" y2="100%" id="o"><stop stop-color="#FFD033" offset="0%"/><stop stop-color="#FEC403" offset="100%"/></linearGradient><path d="M1.5 2a.5.5 0 1 0 0-1 .5.5 0 0 0 0 1zm0 1a.5.5 0 1 0 0-1 .5.5 0 0 0 0 1zm0 1a.5.5 0 1 0 0-1 .5.5 0 0 0 0 1zm0 1a.5.5 0 1 0 0-1 .5.5 0 0 0 0 1zm2 0a.5.5 0 1 0 0-1 .5.5 0 0 0 0 1zm0-1a.5.5 0 1 0 0-1 .5.5 0 0 0 0 1zm0-1a.5.5 0 1 0 0-1 .5.5 0 0 0 0 1zm0-1a.5.5 0 1 0 0-1 .5.5 0 0 0 0 1z" id="n"/><filter x="-50%" y="-50%" width="200%" height="200%" filterUnits="objectBoundingBox" id="m"><feOffset dy=".5" in="SourceAlpha" result="shadowOffsetOuter1"/><feColorMatrix values="0 0 0 0 0 0 0 0 0 0 0 0 0 0 0 0 0 0 0.06 0" in="shadowOffsetOuter1"/></filter><ellipse id="q" cx="2.5" cy="3" rx=".5" ry="1.5"/><filter x="-50%" y="-50%" width="200%" height="200%" filterUnits="objectBoundingBox" id="p"><feOffset dy=".5" in="SourceAlpha" result="shadowOffsetOuter1"/><feColorMatrix values="0 0 0 0 0 0 0 0 0 0 0 0 0 0 0 0 0 0 0.06 0" in="shadowOffsetOuter1"/></filter><path d="M12.5 10c0 .95 1.37 1.5 3 1.5s3-.55 3-1.5a.5.5 0 1 0-1 0c0 .01-.12.12-.42.24-.4.16-.97.26-1.58.26-.61 0-1.18-.1-1.58-.26a1.1 1.1 0 0 1-.42-.24.5.5 0 1 0-1 0z" id="s"/><filter x="-50%" y="-50%" width="200%" height="200%" filterUnits="objectBoundingBox" id="r"><feOffset dy=".5" in="SourceAlpha" result="shadowOffsetOuter1"/><feColorMatrix values="0 0 0 0 0 0 0 0 0 0 0 0 0 0 0 0 0 0 0.06 0" in="shadowOffsetOuter1"/></filter><linearGradient x1="50%" y1="0%" x2="50%" y2="100%" id="t"><stop stop-color="#DB1E36" offset="0%"/><stop stop-color="#D51931" offset="100%"/></linearGradient><path d="M3.5 3L0 0h.5L4 2.5h1L9 0v.25c0 .14-.09.31-.2.4L5.5 3v1l3.31 2.84c.1.09.07.16-.06.16a.9.9 0 0 1-.46-.15L5 4.5H4L0 7v-.5L3.5 4V3z" id="a"/><mask id="u" x="-.5" y="-.5" width="10" height="8"><path fill="#fff" d="M-.5-.5h10v8h-10z"/><use xlink:href="#a"/></mask></defs><g transform="translate(1 1)" fill="none" fill-rule="evenodd"><mask id="e" fill="#fff"><use xlink:href="#b"/></mask><use fill="#000" filter="url(#c)" xlink:href="#b"/><use fill="url(#d)" xlink:href="#b"/><g mask="url(#e)"><use fill="#000" filter="url(#f)" xlink:href="#g"/><use fill="url(#h)" xlink:href="#g"/></g><g mask="url(#e)"><g transform="translate(13 4)"><mask id="l" fill="#fff"><use xlink:href="#i"/></mask><use fill="#000" filter="url(#j)" xlink:href="#i"/><use fill="url(#k)" xlink:href="#i"/><g mask="url(#l)"><use fill="#000" filter="url(#m)" xlink:href="#n"/><use fill="url(#o)" xlink:href="#n"/></g><g mask="url(#l)"><use fill="#000" filter="url(#p)" xlink:href="#q"/><use fill="url(#d)" xlink:href="#q"/></g></g></g><g mask="url(#e)"><use fill="#000" filter="url(#r)" xlink:href="#s"/><use fill="url(#o)" xlink:href="#s"/></g><g mask="url(#e)"><use fill="url(#t)" xlink:href="#a"/><use stroke="#FFF" mask="url(#u)" xlink:href="#a"/></g><path d="M0 2.5v2h3.5V7c0 .28.21.5.5.5h1a.5.5 0 0 0 .5-.5V4.5h3.51c.27 0 .49-.21.49-.5V3a.5.5 0 0 0-.49-.5H5.5V0h-2v2.5H0z" fill="url(#d)" mask="url(#e)"/><path fill="url(#t)" mask="url(#e)" d="M0 3h4V0h1v3h4v1H5v3H4V4H0z"/><rect mask="url(#e)" width="21" height="15" rx="1.5"/></g></svg>
